source/img/icon-facebook.svg

<svg width="8.673" height="18.944" xmlns="http://www.w3.org/2000/svg">

  <g>
    <title>background</title>
    <rect fill="none" id="canvas_background" height="402" width="582" y="-1" x="-1"/>
  </g>
  <g>
    <title>Layer 1</title>
    <path fill="#d22856" id="svg_1" d="m6.252613,3.379387c0.799,0 1.599,0 2.398,0c0,-1.119 0,-2.238 0,-3.357c-0.959,0 -1.92,0 -2.878,0c-3.139,0.181 -4.255,2.387 -3.847,6.115l-1.948,0l0,3.517l1.958,0c0,3.104 0,6.208 0,9.312c1.279,0 2.558,0 3.837,0c0,-3.104 0,-6.208 0,-9.312l2.857,0l0,-3.517l-2.866,0c-0.021,-1.045 -0.036,-2.406 0.489,-2.758z"/>
  </g>
</svg>

<svg width="8.673" height="18.944" xmlns="http://www.w3.org/2000/svg"><path fill="none" d="M-1-1h582v402H-1z"/><path fill="#d22856" d="M6.253 3.38H8.65V.021H5.773C2.633.203 1.518 2.41 1.926 6.137H-.022v3.517h1.958v9.312h3.837V9.654H8.63V6.137H5.764c-.021-1.045-.036-2.406.489-2.758z"/></svg>
